X:1
T:Title
L:1/8
Q:1/4=80
M:6/8
K:G
V:1 treble nm="Church Organ, Staff"
V:1
 E G2 G F2 | D E2 E E2 | G A2 cBA | G F2 G A2 | F G2 G F2 | D E2 F G2 | B, C2 CDC | D E2 E E2 | %8
w: By~Frederic~H.~Cowen * * *||||||||
 E E2 E G2 | G F2 G F2 | F G2 G c2 | c A2 A B2 | B d2 c B2 | A B2 A G2 | D E2 cBA | G F2 G A2- | %16
w: ||||||||
[M:4/4] A B2 G- G/ z/ d- d/d/d- | dddB- B4- | B B2 G- G/ z/ e- e/e/e- | eeBd- d4- | d ^d3 d d2 B- | %21
w: |||||
 B e2 e- e/ z/ g3- | g d2 f- f/ z/ e2 e- | e B3- B/ z/ B3- | B B3- B4- | B2 z2 z4 |] %26
w: |||||

